public/library/ethcc-icon-light.svg

<svg viewBox="0 0 133 181" fill="none" xmlns="http://www.w3.org/2000/svg">
  <path d="M123.299 126.798C121.438 122.445 119.682 118.329 121.281 113.834C121.858 112.344 122.644 110.996 123.431 109.695L132.396 98.3868L97.766 46.5084L97.635 46.3191L94.7775 42.0373L94.2532 41.2567L92.6279 38.8201L66.7012 0L43.2912 35.0351L43.1602 35.248L42.7669 35.8157L40.6698 38.962L38.2318 42.5341L38.1007 42.7234L37.6812 43.3148L0.980225 98.3395L38.3104 145.274H34.6403L37.4453 148.798H29.1351L31.1275 151.306H46.0176L50.1858 156.558H47.2759L66.675 180.947L80.7787 163.229C82.5089 161.052 84.0032 159.207 84.8682 158.143H96.6126L97.5301 155.824H92.2871C93.2046 155.257 94.1221 154.665 95.1445 154.287L96.9272 153.624L91.5006 153.34C91.9725 153.128 92.392 152.915 92.8376 152.678C93.5192 152.323 94.2532 151.945 95.0397 151.685C95.0659 151.685 95.0921 151.685 95.0921 151.685C96.2718 151.803 97.4252 151.945 98.5787 152.087C102.17 152.513 105.814 152.938 109.484 152.938C111.476 152.938 113.469 152.82 115.461 152.489L118.502 151.992L115.435 151.708C112.578 151.448 109.563 151.282 106.653 151.14C104.713 151.046 102.747 150.928 100.807 150.786C101.148 150.691 101.489 150.596 101.829 150.502C103.166 150.123 104.451 149.745 105.735 149.555L107.466 149.295L105.814 148.798C105.552 148.727 105.316 148.657 105.054 148.586C112.001 148.041 119.131 146.598 123.011 142.908C125.161 140.85 126.183 138.248 126 135.172C125.659 132.31 124.453 129.495 123.299 126.798ZM46.9351 148.822H43.265L41.0892 146.078H44.7593L11.7284 104.254L32.2023 115.183C34.0636 116.153 35.7151 117.028 37.3667 117.903L38.0745 118.282C46.0438 122.966 54.4064 127.058 62.4806 131.033C65.7575 132.641 69.1655 134.321 72.521 136C69.2441 139.005 66.6488 142.269 64.7351 145.699L64.4205 146.267H65.1283C65.7313 146.267 66.4129 146.291 67.042 146.338C66.8848 146.859 66.7275 147.45 66.5702 148.065L64.5516 148.018V148.633H64.4992V149.839L64.4468 154.074H55.2977V155.753L51.182 150.549H48.2983L46.9351 148.822ZM45.572 39.5771L45.703 39.4115L46.1225 38.7964L48.4556 35.3189L64.4468 11.3787V62.6184V63.399V70.7798L9.78847 93.1587L43.1077 43.1728L45.572 39.5771ZM65.6789 100.587C65.7575 100.894 65.8099 101.226 65.8886 101.533L66.0459 102.29C66.8323 107.069 68.6674 111.658 70.45 116.082C72.3375 120.766 74.2774 125.615 75.0376 130.725C75.0376 131.411 75.0114 131.908 74.959 132.263C70.7384 129.85 66.2032 127.697 61.4058 125.426C56.5823 123.131 51.6014 120.789 46.7778 118.045L46.3846 117.832C44.8117 117.004 43.2126 116.176 40.9319 114.994L9.00202 97.961L64.4468 75.2272V88.9952C64.4205 92.8985 64.84 96.7781 65.6789 100.587ZM113.049 104.23C106.181 107.116 104.923 112.935 103.717 118.589C102.878 122.469 102.039 126.491 99.4176 129.66C96.5077 132.286 92.8638 132.523 89.3248 132.759C87.647 132.878 85.9168 132.972 84.3439 133.327C83.2167 133.445 82.3778 133.54 81.8797 133.587C81.67 127.271 78.8388 121.499 76.0862 115.94C73.9366 111.563 71.6821 107.045 70.7646 102.29L70.4238 100.847C69.4276 96.7308 68.9295 92.5437 68.9295 88.4038V75.2745L124.374 98.0083L119.236 100.776C117.48 101.722 115.278 102.881 113.049 104.23ZM68.982 158.166H79.1009L68.982 170.988V158.166ZM55.2977 157.362H56.5823H64.4468V170.988L53.6986 157.362H55.2977ZM89.4559 42.0373L92.3133 46.3191L92.8376 47.0998L123.614 93.1587L68.982 70.7562V63.3754V62.5947V11.3787L87.8305 39.5771L89.4559 42.0373ZM91.9725 150.147C88.984 150.029 85.9955 151.093 83.8196 153.151L83.1643 153.766L88.1713 153.979C87.4111 154.523 86.6247 155.162 85.8906 155.848H68.1169V156.581H65.2856V155.659H68.9557L69.2965 148.917L71.2364 148.964L71.3151 148.633C71.4199 148.089 71.9705 147.048 72.154 146.693L72.4423 146.196L69.2965 145.889C74.8803 137.988 82.8235 137.065 91.2647 136.119C94.8562 135.717 98.5525 135.291 102.17 134.273C102.301 134.202 102.459 134.155 102.616 134.084C105.264 132.972 107.125 130.843 107.649 128.359C108.042 126.491 108.252 124.551 108.462 122.658C109.065 116.957 109.641 111.563 114.937 107.897C117.48 106.525 119.603 105.389 121.097 104.585L121.7 104.254C120.783 105.436 119.367 107.258 117.689 109.458L117.637 109.529C114.78 115.348 116.982 120.647 119.079 125.757C120.783 129.873 122.382 133.777 121.438 137.798C119.524 144.327 112.761 145.226 105.578 146.173C102.249 146.622 98.7884 147.072 95.9048 148.16L93.8862 148.917H96.062C96.0883 148.917 96.0883 148.917 96.1145 148.917L91.9725 150.147Z" fill="#092294" />
</svg>

<svg xmlns="http://www.w3.org/2000/svg" fill="none" viewBox="0 0 133 181"><path fill="#092294" d="M123.299 126.798c-1.861-4.353-3.617-8.469-2.018-12.964.577-1.49 1.363-2.838 2.15-4.139l8.965-11.308-34.63-51.879-.131-.189-2.858-4.282-.524-.78-1.625-2.437L66.7 0l-23.41 35.035-.13.213-.394.568-2.097 3.146-2.438 3.572-.131.19-.42.59L.981 98.34l37.33 46.934h-3.67l2.804 3.524h-8.31l1.992 2.508h14.89l4.169 5.252h-2.91l19.399 24.389 14.104-17.718a597 597 0 0 1 4.09-5.086h11.744l.917-2.319h-5.243c.918-.567 1.835-1.159 2.857-1.537l1.783-.663-5.426-.284a22 22 0 0 0 1.337-.662c.681-.355 1.415-.733 2.202-.993h.052c1.18.118 2.333.26 3.487.402 3.591.426 7.235.851 10.905.851 1.992 0 3.985-.118 5.977-.449l3.041-.497-3.067-.284c-2.857-.26-5.872-.426-8.782-.568-1.94-.094-3.906-.212-5.846-.354l1.022-.284c1.337-.379 2.622-.757 3.906-.947l1.731-.26-1.652-.497c-.262-.071-.498-.141-.76-.212 6.947-.545 14.077-1.988 17.957-5.678 2.15-2.058 3.172-4.66 2.989-7.736-.341-2.862-1.547-5.677-2.701-8.374m-76.364 22.024h-3.67l-2.176-2.744h3.67l-33.03-41.824 20.473 10.929c1.862.97 3.513 1.845 5.165 2.72l.708.379c7.969 4.684 16.331 8.776 24.406 12.751 3.276 1.608 6.684 3.288 10.04 4.967-3.277 3.005-5.872 6.269-7.786 9.699l-.314.568h.707c.603 0 1.285.024 1.914.071a43 43 0 0 0-.472 1.727l-2.018-.047v.615h-.053v1.206l-.052 4.235h-9.15v1.679l-4.115-5.204h-2.884zM45.572 39.577l.131-.166.42-.615 2.333-3.477 15.99-23.94v59.4L9.789 93.16l33.32-49.986zm20.107 61.01c.078.307.13.639.21.946l.157.757c.786 4.779 2.621 9.368 4.404 13.792 1.888 4.684 3.827 9.533 4.588 14.643 0 .686-.027 1.183-.079 1.538-4.22-2.413-8.756-4.566-13.553-6.837-4.824-2.295-9.805-4.637-14.628-7.381l-.393-.213c-1.573-.828-3.172-1.656-5.453-2.838L9.002 97.961l55.445-22.734v13.768a52.2 52.2 0 0 0 1.232 11.592m47.37 3.643c-6.868 2.886-8.126 8.705-9.332 14.359-.839 3.88-1.678 7.902-4.3 11.071-2.91 2.626-6.553 2.863-10.092 3.099-1.678.119-3.408.213-4.981.568-1.127.118-1.966.213-2.464.26-.21-6.316-3.041-12.088-5.794-17.647-2.15-4.377-4.404-8.895-5.321-13.65l-.341-1.443a53 53 0 0 1-1.495-12.443v-13.13l55.445 22.734-5.138 2.768c-1.756.946-3.958 2.105-6.187 3.454m-44.067 53.936h10.119l-10.119 12.822zm-13.684-.804h9.149v13.626l-10.748-13.626zM89.456 42.037l2.857 4.282.525.78 30.776 46.06-54.632-22.403V11.38l18.849 28.198zm2.516 108.11c-2.988-.118-5.976.946-8.152 3.004l-.656.615 5.007.213a23 23 0 0 0-2.28 1.869H68.117v.733h-2.831v-.922h3.67l.34-6.742 1.94.047.08-.331c.104-.544.654-1.585.838-1.94l.288-.497-3.145-.307c5.583-7.901 13.526-8.824 21.968-9.77 3.591-.402 7.287-.828 10.905-1.846.131-.071.289-.118.446-.189 2.648-1.112 4.509-3.241 5.033-5.725.393-1.868.603-3.808.813-5.701.603-5.701 1.179-11.095 6.475-14.761 2.543-1.372 4.666-2.508 6.16-3.312l.603-.331c-.917 1.182-2.333 3.004-4.011 5.204l-.052.071c-2.857 5.819-.655 11.118 1.442 16.228 1.704 4.116 3.303 8.02 2.359 12.041-1.914 6.529-8.677 7.428-15.86 8.375-3.329.449-6.79.899-9.673 1.987l-2.019.757h2.229z"/></svg>
